public/files/perm/idevices/base/puzzle/export/puzlenumbers.svg

<svg height="2.9cm" viewBox="0 0 144 144" width="2.92cm" xmlns="http://www.w3.org/2000/svg"><g stroke-linecap="square" stroke-miterlimit="10"><path d="m-10-31h166v246h-166z" fill="#fff"/><path d="m3.4688 3.1719h69.3752v69.3751h-69.3752zm42.6562 66.0941v-62.6566h-5l-.156.3906q-.86.625-1.766 1.0156-.891.3906-1.906 1.0938-1.172.7812-2.235 1.4526-1.046.657-2.374 1.282-1.172.703-2.422 1.297-1.25.578-2.422.968-1.094.625-2.266 1.016-1.172.391-2.344.703l-1.328.234v9.61l1.953-.391q1.094-.312 2.188-.625 1.094-.312 2.187-.703 1.172-.469 2.188-1.015 1.016-.547 2.031-.938l3.516-2.109q.078 0 .156-.079.078 0 .156-.031.078-.047.235-.047v49.532zm26.875 3.437h69.45v69.457h-69.45zm55.16 52.347v-8.91h-7.11v-39.921h-10.16l-.16.937q-1.17 2.266-2.46 4.688-1.29 2.422-2.77 4.922-1.56 2.578-3.28 5.203-1.72 2.609-3.517 5.187-1.797 2.578-3.672 5.044-1.875 2.46-3.906 4.96-2.031 2.57-3.953 4.89-1.906 2.29-3.938 4.48l-.625.39v8.13h28.831v13.83h9.61v-13.83zm-25.94-18.83q1.33-1.8 2.66-3.67 1.32-1.88 2.73-4.066.86-1.328 1.67-2.765.83-1.453 2.16-3.016v23.437h-16.721l2.5-3.44q1.172-1.4 2.422-3.04 1.249-1.64 2.579-3.44zm23.12-43.829v6.875h-37.34l.234-2.657q0-1.875.157-3.703.156-1.844.625-3.406.39-1.484 1.015-3.156.625-1.688 1.641-3.016 1.016-1.328 2.266-2.734 1.25-1.406 2.734-2.813 1.562-1.328 3.468-2.765 1.92-1.454 4.19-3.016 1.56-1.172 2.97-2.375 1.4-1.219 2.42-2.234 2.34-2.344 3.67-4.219.63-1.172 1.13-2.219.51-1.062.82-2.234.16-1.016.35-2.219.2-1.219.2-2.391 0-1.484-.28-2.968-.27-1.485-.66-2.579-.47-1.015-1.01-1.828-.55-.828-1.33-1.453-.7-.703-1.56-1.25-.86-.547-1.88-.859-2.11-.625-4.45-.625-1.02 0-2 .125-.97.109-1.83.266-1.015.312-1.999.75-.969.421-1.829.812-.859.625-1.718 1.172-.86.547-1.719 1.172-.859.703-1.641 1.453-.781.734-1.64 1.594v-7.344q1.562-1.406 3.156-2.531 1.609-1.141 3.328-1.8441 1.875-.7031 4.012-1.125 2.16-.4375 4.66-.4375 3.75 0 6.95 1.1718 3.21 1.1719 5.39 3.0468 2.19 2.11 3.6 5.234.78 1.407 1.09 3.438.31 2.031.31 4.062 0 1.719-.28 3.282-.26 1.562-.73 3.047-.31 1.406-.94 2.812-.62 1.406-1.33 2.735-.86 1.328-1.87 2.5-1.02 1.171-2.35 2.343-1.32 1.094-2.78 2.391-1.44 1.281-3 2.375-2.18 1.562-3.95 2.859-1.75 1.282-3.16 2.375-1.33 1.094-2.42 2.235-1.092 1.125-1.796 2.14-.859.86-1.453 2.032-.578 1.171-.89 2.187-.313.859-.438 1.953-.109 1.094-.109 1.563zm-75.387 48.199q1.797 2.03 2.891 4.46.625 1.09.781 2.5.156 1.4.156 2.89 0 2.11-.281 3.9-.266 1.8-1.125 3.52-.859 1.64-1.875 3.05-1.016 1.4-2.422 2.57-1.328 1.33-3.016 2.19-1.671.86-3.703 1.49-1.875.7-4.031 1.01-2.14.31-4.484.31-4.297 0-7.656-.86-3.36-.85-5.938-2.42v-7.34q2.969 2.34 6.406 3.59 3.438 1.25 7.422 1.25 1.563 0 2.969-.28 1.406-.26 2.578-.65 1.328-.32 2.453-.86 1.141-.55 2-1.25 1.016-.86 1.641-1.75.625-.91 1.25-1.93.39-1.17.656-2.34.281-1.17.281-2.66 0-11.56-16.718-11.56h-4.844v-5.94h4.609q14.844 0 14.844-10.933 0-10.235-11.328-10.235-3.203 0-6.297 1.141-3.078 1.125-5.813 3.156v-6.797q5.782-3.203 13.829-3.203 1.874 0 3.546.282 1.688.265 3.172.656 3.203 1.172 5.156 2.891 2.344 1.953 3.516 4.609 1.094 2.656 1.094 5.781 0 11.722-11.875 15.152v.24q1.562.16 2.891.51 1.328.35 2.656.97 2.734 1.25 4.609 2.89z" fill="#fb0000"/></g></svg>

<?xml version="1.0" encoding="ISO-8859-1" standalone="no"?>

<svg 
     version="1.1"
     baseProfile="full"
     xmlns="http://www.w3.org/2000/svg"
     xmlns:xlink="http://www.w3.org/1999/xlink"
     xmlns:ev="http://www.w3.org/2001/xml-events"
     width="2.92cm"
     height="2.9cm"
     viewBox="0 0 144 144"
     >
<title>

</title>
<g stroke-dashoffset="0.0000" stroke-linejoin="miter" stroke-dasharray="none" stroke-width="1.0000" stroke-linecap="square" stroke-miterlimit="10.000">
<g id="misc">
</g><!-- misc -->
<g id="layer0">
<clipPath id="clip5afe5311-1534-4f37-ae6a-8edbb1aa577e">
  <path d="M 0.0000 0.0000 L 0.0000 145.00 L 146.00 145.00 L 146.00 0.0000 z"/>
</clipPath>
<g clip-path="url(#clip1)">
<g fill="#ffffff" fill-rule="nonzero" fill-opacity="1.0000" stroke="none">
  <path d="M -10.000 -31.000 L 156.00 -31.000 L 156.00 215.00 L -10.000 215.00 L -10.000 -31.000 z"/>
<title>&#x1f522;</title>
<desc>texto = “&#x1f522;”</desc>

</g> <!-- drawing style -->
</g> <!-- clip1 -->
<clipPath id="clipd0534b83-03e7-4db0-b34d-5b4c5ca17a31">
  <path d="M 0.0000 0.0000 L 0.0000 145.00 L 146.00 145.00 L 146.00 0.0000 z"/>
</clipPath>
<g clip-path="url(#clip2)">
<g fill="#fb0000" fill-rule="nonzero" fill-opacity="1.0000" stroke="none">
  <path d="M 3.4688 3.1719 L 72.844 3.1719 L 72.844 72.547 L 3.4688 72.547 L 3.4688 3.1719 z M 46.125 69.266 L 46.125 6.6094 L 41.125 6.6094 L 40.969 7.0000 Q 40.109 7.6250 39.203 8.0156 Q 38.312 8.4062 37.297 9.1094 Q 36.125 9.8906 35.062 10.562 Q 34.016 11.219 32.688 11.844 Q 31.516 12.547 30.266 13.141 Q 29.016 13.719 27.844 14.109 Q 26.750 14.734 25.578 15.125 Q 24.406 15.516 23.234 15.828 L 21.906 16.062 L 21.906 25.672 L 23.859 25.281 Q 24.953 24.969 26.047 24.656 Q 27.141 24.344 28.234 23.953 Q 29.406 23.484 30.422 22.938 Q 31.438 22.391 32.453 22.000 L 35.969 19.891 Q 36.047 19.891 36.125 19.812 Q 36.203 19.812 36.281 19.781 Q 36.359 19.734 36.516 19.734 L 36.516 69.266 L 46.125 69.266 z M 73.000 72.703 L 142.45 72.703 L 142.45 142.16 L 73.000 142.16 L 73.000 72.703 z M 128.16 125.05 L 128.16 116.14 L 121.05 116.14 L 121.05 76.219 L 110.89 76.219 L 110.73 77.156 Q 109.56 79.422 108.27 81.844 Q 106.98 84.266 105.50 86.766 Q 103.94 89.344 102.22 91.969 Q 100.50 94.578 98.703 97.156 Q 96.906 99.734 95.031 102.20 Q 93.156 104.66 91.125 107.16 Q 89.094 109.73 87.172 112.05 Q 85.266 114.34 83.234 116.53 L 82.609 116.92 L 82.609 125.05 L 111.44 125.05 L 111.44 138.88 L 121.05 138.88 L 121.05 125.05 L 128.16 125.05 z M 102.22 106.22 Q 103.55 104.42 104.88 102.55 Q 106.20 100.67 107.61 98.484 Q 108.47 97.156 109.28 95.719 Q 110.11 94.266 111.44 92.703 L 111.44 116.14 L 94.719 116.14 L 97.219 112.70 Q 98.391 111.30 99.641 109.66 Q 100.89 108.02 102.22 106.22 z M 125.34 62.391 L 125.34 69.266 L 88.000 69.266 L 88.234 66.609 Q 88.234 64.734 88.391 62.906 Q 88.547 61.062 89.016 59.500 Q 89.406 58.016 90.031 56.344 Q 90.656 54.656 91.672 53.328 Q 92.688 52.000 93.938 50.594 Q 95.188 49.188 96.672 47.781 Q 98.234 46.453 100.14 45.016 Q 102.06 43.562 104.33 42.000 Q 105.89 40.828 107.30 39.625 Q 108.70 38.406 109.72 37.391 Q 112.06 35.047 113.39 33.172 Q 114.02 32.000 114.52 30.953 Q 115.03 29.891 115.34 28.719 Q 115.50 27.703 115.69 26.500 Q 115.89 25.281 115.89 24.109 Q 115.89 22.625 115.61 21.141 Q 115.34 19.656 114.95 18.562 Q 114.48 17.547 113.94 16.734 Q 113.39 15.906 112.61 15.281 Q 111.91 14.578 111.05 14.031 Q 110.19 13.484 109.17 13.172 Q 107.06 12.547 104.72 12.547 Q 103.70 12.547 102.72 12.672 Q 101.75 12.781 100.89 12.938 Q 99.875 13.250 98.891 13.688 Q 97.922 14.109 97.062 14.500 Q 96.203 15.125 95.344 15.672 Q 94.484 16.219 93.625 16.844 Q 92.766 17.547 91.984 18.297 Q 91.203 19.031 90.344 19.891 L 90.344 12.547 Q 91.906 11.141 93.500 10.016 Q 95.109 8.8750 96.828 8.1719 Q 98.703 7.4688 100.84 7.0469 Q 103.00 6.6094 105.50 6.6094 Q 109.25 6.6094 112.45 7.7812 Q 115.66 8.9531 117.84 10.828 Q 120.03 12.938 121.44 16.062 Q 122.22 17.469 122.53 19.500 Q 122.84 21.531 122.84 23.562 Q 122.84 25.281 122.56 26.844 Q 122.30 28.406 121.83 29.891 Q 121.52 31.297 120.89 32.703 Q 120.27 34.109 119.56 35.438 Q 118.70 36.766 117.69 37.938 Q 116.67 39.109 115.34 40.281 Q 114.02 41.375 112.56 42.672 Q 111.12 43.953 109.56 45.047 Q 107.38 46.609 105.61 47.906 Q 103.86 49.188 102.45 50.281 Q 101.12 51.375 100.03 52.516 Q 98.938 53.641 98.234 54.656 Q 97.375 55.516 96.781 56.688 Q 96.203 57.859 95.891 58.875 Q 95.578 59.734 95.453 60.828 Q 95.344 61.922 95.344 62.391 L 125.34 62.391 z M 49.953 110.59 Q 51.750 112.62 52.844 115.05 Q 53.469 116.14 53.625 117.55 Q 53.781 118.95 53.781 120.44 Q 53.781 122.55 53.500 124.34 Q 53.234 126.14 52.375 127.86 Q 51.516 129.50 50.500 130.91 Q 49.484 132.31 48.078 133.48 Q 46.750 134.81 45.062 135.67 Q 43.391 136.53 41.359 137.16 Q 39.484 137.86 37.328 138.17 Q 35.188 138.48 32.844 138.48 Q 28.547 138.48 25.188 137.62 Q 21.828 136.77 19.250 135.20 L 19.250 127.86 Q 22.219 130.20 25.656 131.45 Q 29.094 132.70 33.078 132.70 Q 34.641 132.70 36.047 132.42 Q 37.453 132.16 38.625 131.77 Q 39.953 131.45 41.078 130.91 Q 42.219 130.36 43.078 129.66 Q 44.094 128.80 44.719 127.91 Q 45.344 127.00 45.969 125.98 Q 46.359 124.81 46.625 123.64 Q 46.906 122.47 46.906 120.98 Q 46.906 109.42 30.188 109.42 L 25.344 109.42 L 25.344 103.48 L 29.953 103.48 Q 44.797 103.48 44.797 92.547 Q 44.797 82.312 33.469 82.312 Q 30.266 82.312 27.172 83.453 Q 24.094 84.578 21.359 86.609 L 21.359 79.812 Q 27.141 76.609 35.188 76.609 Q 37.062 76.609 38.734 76.891 Q 40.422 77.156 41.906 77.547 Q 45.109 78.719 47.062 80.438 Q 49.406 82.391 50.578 85.047 Q 51.672 87.703 51.672 90.828 Q 51.672 102.55 39.797 105.98 L 39.797 106.22 Q 41.359 106.38 42.688 106.73 Q 44.016 107.08 45.344 107.70 Q 48.078 108.95 49.953 110.59 z"/>
<title>&#x1f522;</title>
<desc>texto = “&#x1f522;”</desc>

</g> <!-- drawing style -->
</g> <!-- clip2 -->
</g><!-- layer0 -->
</g> <!-- default stroke -->
</svg> <!-- bounding box -->
